svg/color/a4.svg

<?xml version="1.0" encoding="UTF-8" ?>
<!DOCTYPE svg PUBLIC "-//W3C//DTD SVG 1.1//EN" "http://www.w3.org/Graphics/SVG/1.1/DTD/svg11.dtd">
<svg width="250pt" height="250pt" viewBox="0 0 250 250" version="1.1" xmlns="http://www.w3.org/2000/svg">
<g id="#ffffffff">
<path fill="#ffffff" opacity="1.00" d=" M 0.00 0.00 L 250.00 0.00 L 250.00 250.00 L 0.00 250.00 L 0.00 0.00 M 98.65 59.37 C 92.64 70.46 85.78 81.11 79.99 92.30 C 91.96 92.31 103.92 92.44 115.88 92.25 C 115.76 92.71 115.51 93.62 115.39 94.08 C 112.47 98.78 109.61 103.56 107.14 108.52 C 98.77 109.02 90.37 108.62 81.99 108.75 C 78.08 108.61 74.13 109.12 70.26 108.41 C 73.79 103.29 76.20 97.45 80.01 92.53 C 67.23 92.06 54.42 92.50 41.62 92.35 C 29.43 113.83 16.95 135.16 4.66 156.58 C 4.51 156.99 4.22 157.81 4.08 158.22 C 14.05 158.04 24.02 158.18 33.99 158.14 C 36.76 158.07 39.60 158.48 42.31 157.71 C 44.75 152.16 48.54 147.31 50.95 141.76 C 63.26 141.65 75.57 141.65 87.88 141.75 C 86.92 143.14 86.03 144.58 85.21 146.07 C 82.96 150.10 80.49 154.01 78.36 158.11 C 90.58 158.20 102.81 158.10 115.03 158.14 C 116.47 158.37 117.24 156.92 117.68 155.81 C 121.62 148.76 125.79 141.84 129.73 134.78 C 144.07 110.26 157.97 85.48 172.46 61.05 C 172.54 60.62 172.70 59.75 172.78 59.31 C 148.07 59.47 123.36 59.34 98.65 59.37 M 179.94 59.61 C 179.63 60.60 179.23 61.54 178.73 62.44 C 166.57 83.35 154.60 104.38 142.37 125.26 C 156.88 125.31 171.40 125.17 185.91 125.32 C 179.81 136.39 173.17 147.15 167.12 158.24 C 179.77 158.05 192.43 158.13 205.09 158.19 C 217.63 136.20 230.44 114.37 242.94 92.36 C 228.56 92.32 214.18 92.37 199.80 92.33 C 200.32 91.00 200.93 89.70 201.58 88.43 C 207.39 78.86 212.77 69.04 218.50 59.42 C 205.65 59.48 192.78 59.10 179.94 59.61 Z" />
</g>
<g id="#121212ff">
<path fill="#121212" opacity="1.00" d=" M 98.65 59.37 C 123.36 59.34 148.07 59.47 172.78 59.31 C 172.70 59.75 172.54 60.62 172.46 61.05 C 157.97 85.48 144.07 110.26 129.73 134.78 C 125.79 141.84 121.62 148.76 117.68 155.81 C 117.24 156.92 116.47 158.37 115.03 158.14 C 102.81 158.10 90.58 158.20 78.36 158.11 C 80.49 154.01 82.96 150.10 85.21 146.07 C 86.03 144.58 86.92 143.14 87.88 141.75 C 75.57 141.65 63.26 141.65 50.95 141.76 C 48.54 147.31 44.75 152.16 42.31 157.71 C 39.60 158.48 36.76 158.07 33.99 158.14 C 24.02 158.18 14.05 158.04 4.08 158.22 C 4.22 157.81 4.51 156.99 4.66 156.58 C 16.95 135.16 29.43 113.83 41.62 92.35 C 54.42 92.50 67.23 92.06 80.01 92.53 C 76.20 97.45 73.79 103.29 70.26 108.41 C 74.13 109.12 78.08 108.61 81.99 108.75 C 90.37 108.62 98.77 109.02 107.14 108.52 C 109.61 103.56 112.47 98.78 115.39 94.08 C 115.51 93.62 115.76 92.71 115.88 92.25 C 103.92 92.44 91.96 92.31 79.99 92.30 C 85.78 81.11 92.64 70.46 98.65 59.37 Z" />
<path fill="#121212" opacity="1.00" d=" M 179.94 59.61 C 192.78 59.10 205.65 59.48 218.50 59.42 C 212.77 69.04 207.39 78.86 201.58 88.43 C 200.93 89.70 200.32 91.00 199.80 92.33 C 214.18 92.37 228.56 92.32 242.94 92.36 C 230.44 114.37 217.63 136.20 205.09 158.19 C 192.43 158.13 179.77 158.05 167.12 158.24 C 173.17 147.15 179.81 136.39 185.91 125.32 C 171.40 125.17 156.88 125.31 142.37 125.26 C 154.60 104.38 166.57 83.35 178.73 62.44 C 179.23 61.54 179.63 60.60 179.94 59.61 Z" />
</g>
</svg>

<?xml version="1.0" encoding="utf-8"?>
<!-- Generator: Adobe Illustrator 26.0.3, SVG Export Plug-In . SVG Version: 6.00 Build 0)  -->
<svg version="1.1" id="Layer_1" xmlns="http://www.w3.org/2000/svg" xmlns:xlink="http://www.w3.org/1999/xlink" x="0px" y="0px"
	 viewBox="0 0 250 250" style="enable-background:new 0 0 250 250;" xml:space="preserve">
<style type="text/css">
	.st0{fill:#FFFFFF;}
	.st1{fill:#121212;}
</style>
<circle class="st0" cx="125" cy="125" r="125"/>
<g id="_x23_121212ff">
	<path class="st1" d="M98.7,59.4c24.7,0,49.4,0.1,74.1-0.1c-0.1,0.4-0.2,1.3-0.3,1.7c-14.5,24.4-28.4,49.2-42.7,73.7
		c-3.9,7.1-8.1,14-12,21c-0.4,1.1-1.2,2.6-2.7,2.3c-12.2,0-24.4,0.1-36.7,0c2.1-4.1,4.6-8,6.8-12c0.8-1.5,1.7-2.9,2.7-4.3
		c-12.3-0.1-24.6-0.1-36.9,0c-2.4,5.6-6.2,10.4-8.6,16c-2.7,0.8-5.6,0.4-8.3,0.4c-10,0-19.9-0.1-29.9,0.1c0.1-0.4,0.4-1.2,0.6-1.6
		c12.3-21.4,24.8-42.8,37-64.2c12.8,0.2,25.6-0.3,38.4,0.2c-3.8,4.9-6.2,10.8-9.8,15.9c3.9,0.7,7.8,0.2,11.7,0.3
		c8.4-0.1,16.8,0.3,25.2-0.2c2.5-5,5.3-9.7,8.2-14.4c0.1-0.5,0.4-1.4,0.5-1.8c-12,0.2-23.9,0.1-35.9,0.1
		C85.8,81.1,92.6,70.5,98.7,59.4z"/>
	<path class="st1" d="M179.9,59.6c12.8-0.5,25.7-0.1,38.6-0.2c-5.7,9.6-11.1,19.4-16.9,29c-0.7,1.3-1.3,2.6-1.8,3.9
		c14.4,0,28.8,0,43.1,0c-12.5,22-25.3,43.8-37.9,65.8c-12.7-0.1-25.3-0.1-38,0.1c6.1-11.1,12.7-21.9,18.8-32.9
		c-14.5-0.2-29,0-43.5-0.1c12.2-20.9,24.2-41.9,36.4-62.8C179.2,61.5,179.6,60.6,179.9,59.6z"/>
</g>
</svg>
